X: 8642
T: Croppies' March, The
R: polka
M: 2/4
K: Dmajor
M:4/4
|:dB|A>B AF AB de|fa ef d/e/f/d/ Bd|A>B AF AB de|fa ef d2:|
de|fa ag/f/ gb ba/g/|fa ef d/e/f/d/ BA|fa ag/f/ gb bc'|d'c' ba b2 ba|
fa ag/f/ gb ba/g/|fa ef d/e/f/d/ Bd|A>B AF AB de|fa ef d2 d2||

